X: 33454
T: Rabelada
R: polka
M: 2/4
K: Cmajor
ef ef|e2 c2|ef ef|e2 c2|d4|d4|
ef ef|e2 c2|ef ec|d2 B2|c4|c4:|
|:d2 e2|e2 g2|g2 f2|e4|
[1 ,3 d2 e2|e2 d2|c2 B2|A4:|
[2 ,4 d2 e2|d2 B2|c4|c4:|

